X:511
T:The Pearl of the White Breast
M:C
L:1/8
O:
B:O'Neill's 511
N:"Slow with Feeling"
Z:Transcribed by Dave Wooldridge
K:F
(cd/2e/2) \
| f>e (dc) f3 d | (cA)(GF) G2 (AB) | c2 (AF) (BA) G>F | F6 Hx:|
(cB) \
| Acdf e3 c | (fe) (d>c) c3 c | defa gfed | "D.C."c6 |]


